X: 80
T:Green Meadow
% Nottingham Music Database
S:via PR
M:4/4
L:1/4
K:G
(3D/2E/2F/2|"G"GG/2A/2 B/2G/2B/2d/2|"C"e/2f/2g/2e/2 "G"d/2B/2A/2G/2|\
"Am"E/2A/2A/2G/2 A/2B/2A/2G/2|"Am"E/2A/2A/2G/2 "D7"A/2c/2B/2A/2|
"G"G/2F/2G/2A/2 B/2G/2B/2d/2|"C"e/2f/2g/2e/2 "G"d/2B/2A/2G/2|\
"C"E/2G/2G/2F/2 G/2A/2G/2E/2|"D7"D/2G/2G/2F/2 "G"G::
g/2a/2|"G"bb/2g/2 "D7"a/2b/2a/2f/2|"C"g/2a/2g/2e/2 "G"dB/2d/2|\
"Am"e/2a/2a/2g/2 a/2b/2a/2g/2|"Am"e/2a/2a/2g/2 "D7"ag/2a/2|
"G"b/2a/2b/2g/2 "D7"a/2b/2a/2f/2|"C"g/2a/2g/2e/2 "G"dB/2d/2|\
"C"e/2g/2g/2f/2 g/2a/2g/2e/2| [1"D7"d/2g/2g/2f/2 "G"g:|[2"D7"d/2g/2g/2a/2 g/2e/2d/2B/2||<end>
<start>
